X:508
T:Mike Cooney's Fancy
R:jig
C:Paddy O'Brien (Nenagh) (1922-1991)
Z:id:hn-jig-508
M:6/8
L:1/8
K:G
GAB cAA | dcA G2g | gfd cAG | ADE FGA |
BAB cBc | dcA dfa | gfg afd | cAF G2D :|
|: GBd ~g3 | dBG GAB | c2=f fef | ~c3 =fcA |
[1 d2g g^fg | dcA =f2a | g^fd cAF | AGF G2D :|
[2 B2G c2A | dcA dfa | ~g3 afd | cAF G2D ||

